X:168
T:One More Dance and Then
R:Polka
M:4/4
L:1/8
K:G
B2c2 |:d3e d2B2|g4 B2c2|d3e d2B2|c2A2 A2 Bc|
 |d3e d2B2|g2f2 e2d2|e2d2 c2B2|1B4 A2 Bc:|2 B4 A2 B2|
 |:c2 AB c2A2|a2g2f2e2|B2 GA B2G2|g2f2e2d2|
 |a2g2 f2e2|d2c2 B2A2|1G3A B2 c2|d4 B4:|2G3A B2 A2|G4 B2c2|
